X: 712
T: Katy Hill
C:Trad.
B: jims roots
M:2/4
L:1/8
Q: 1/4=100
K:G
V:1 
%Reel
%Missouri
%As recorded by Cyril Stinnett on his album "Cyril Stinnett Plays His
%Favorite Old Time Tunes.'
%B. Shull, trans.; R.P. LaVaque, ABC
%122
d2-|:"G"d2ga bgag|egdg eage|dega bgag|ed-[dg][eg]- [d3g3]e-|
gdga bgag|egdg efga|gedB AGEG|"D"DEGB "G"A[GB][G2B2]:|
|:"G"[G3B3]G AGEF|GABd efge|dBGB AGEG|DEGB A[GB][G2B2]|
[2 "D"DEGB "G"AFG2:|
V:G3B3 
G AGEF|GABd efga|gedB AGEG|[1 "D"DEGB "G"A[GB][G2B2]:|
% abcbook-tune_id 6298c25d59d4391ad4642590


% abcbook-boost 0
% abcbook-tablature 
% abcbook-transpose 
% abcbook-lastupdated 1654178399459
% abcbook-soundfonts 
% abcbook-repeats 1


